!!!COM: Hugo Wolf
!!!CNT: Deutscher
!!!TXO: Deutsche 
!!!OTL: Frech und Froh II
!!!ODT: 1889/02/02
!!!ONM: No. 17
!!!LYR: Johann Wolfgang von Goethe
!!!ENC: Brian Bice
!!!YOR: 45 Songs on Poems of Goethe and Eichendorff, Dover Publications, 1995
!!NB: Vocal melody and text only encoded.
**kern	**silbe
*clefG2	*
*k[b-e-a-d-]	*
*M4/4	*
=1	=1
2r	.
{4dd-	{Lie-
4dd-	-bes-
=2	=2
4.g	-qual
8g	ver-
4a-	-schma2ht
4ddn	mein
=3	=3
4g	Herz,
4r	.
4cc	sanf-
4cc	-ten
=4	=4
4een	Jam-
4een	-mer,
4cc	su2-
4cc	-ssen
=5	=5
2.f}	Schmerz;}
4r	.
=7	=7
*k[b-]	*
2r	.
{4ff	{nur
4ee	vom
=8	=8
8.dd	Tu2cht-
16dd	-gen
8.ee	will
16gg	ich
4ff	wis-
4cc	-sen,
=9	=9
4a	hei-
4cc	-ssem
8ff	A2ug-
8aa	|
4cc	-len,
=10	=10
4a	der-
4cc	-ben
8ff	Ku2s-
8aa	|
4cc}	-sen.}
=13	=13
{4dd-	{Sei
4dd-	ein
4dd-	ar-
4dd-	-mer
=14	=14
4dd-	Hund
4ff	er-
4bn	-frischt
[4bn	von
=15	=15
4bn]	|
4bn	der
4ddn	Lust,
4ddn	mit
=16	=16
4dd	Pein
4ff	ge-
[2ee	-mischt!
=17	=17
4ee]}	|}
4r	.
2r	.
=18	=18
{4ff	{Ma2d-
4ff	-chen,
4ff	gib
4ee	der
=19	=19
8.dd	fri-
16ff	|
8.ee	-schen
16gg	|
4ff	Brust
[4ff	nichts
=20	=20
4ff]	|
4ff	von
[2gg	Pein,
=21	=21
2gg]}	|}
4r	.
{4dd	{und
=22	=22
[1ff	al-
=23	=23
8ff]	|
8aa	|
8ff	|
8dd	|
[2cc	|
=24	=24
2cc_	|
4.cc]	|
16dd	-le
16ee	|
=25	=25
4ff}	Lust.}
4r	.
2r	.
*-	*-
